public/images/email.svg

<svg fill="none" height="18" viewBox="0 0 18 18" width="18" xmlns="http://www.w3.org/2000/svg"><path d="m9 12.375c-.59766 0-1.19531-.1758-1.6875-.5625l-7.3125-5.69531v7.94531c0 .9492.738281 1.6875 1.6875 1.6875h14.625c.9141 0 1.6875-.7383 1.6875-1.6875v-7.94531l-7.3477 5.69531c-.4921.3867-1.0898.5625-1.6523.5625zm-8.4375-7.24219 7.45312 5.80079c.5625.4219 1.3711.4219 1.9336 0l7.45308-5.80079c.3516-.28125.5977-.73828.5977-1.19531 0-.91406-.7734-1.6875-1.6875-1.6875h-14.625c-.949219 0-1.6875.77344-1.6875 1.6875 0 .45703.210938.91406.5625 1.19531z" fill="#a37a56"/></svg>

<svg width="18" height="18" viewBox="0 0 18 18" fill="none" xmlns="http://www.w3.org/2000/svg">
<path d="M9 12.375C8.40234 12.375 7.80469 12.1992 7.3125 11.8125L0 6.11719V14.0625C0 15.0117 0.738281 15.75 1.6875 15.75H16.3125C17.2266 15.75 18 15.0117 18 14.0625V6.11719L10.6523 11.8125C10.1602 12.1992 9.5625 12.375 9 12.375ZM0.5625 5.13281L8.01562 10.9336C8.57812 11.3555 9.38672 11.3555 9.94922 10.9336L17.4023 5.13281C17.7539 4.85156 18 4.39453 18 3.9375C18 3.02344 17.2266 2.25 16.3125 2.25H1.6875C0.738281 2.25 0 3.02344 0 3.9375C0 4.39453 0.210938 4.85156 0.5625 5.13281Z" fill="#A37A56"/>
</svg>
